X:4
T:Bnis sois-tu, Seigneur - V24
C:C. Rozier
M:C|
L:1/8
K:D
A,2|B,2F2 D3E|F6 DD|A2GA B2AG|A4- AzA,2|B,2F2 F3E|D4 zDDD|
[M:3/2]AAAA BBAA BBAG|[M:C|]F4zFFF|[M:3/2]AAFE DB,DE FFED|[M:C|]E4-Ez||
